X: 17
T: The Bus Stop
R: reel
M: 4/4
L: 1/8
K: Amin
|:A2e2 d2cB|ABcA BAGB|A2e2 d2cA|(3Bcd e^fg edB|
A2e2 d2cB|ABcA BAGB|(3E^FG AcB AGE|A4 A4:|
|:a2ag edcB|ABcd e2cB|A2ag edcA|de^fd e2cB|
A2ag edcB|ABcd e3d|cBAG E^FGB|A4 A4:|

